assets/icons/weather.svg

<?xml version="1.0" encoding="UTF-8" standalone="no"?>
<svg viewBox="0 0 24 24" height="24" id="svg7384" version="1.1" width="24" sodipodi:docname="_.svg" inkscape:version="1.1 (ce6663b3b7, 2021-05-25)"
   xmlns:inkscape="http://www.inkscape.org/namespaces/inkscape"
   xmlns:sodipodi="http://sodipodi.sourceforge.net/DTD/sodipodi-0.dtd"
   xmlns="http://www.w3.org/2000/svg"
   xmlns:svg="http://www.w3.org/2000/svg"
   xmlns:rdf="http://www.w3.org/1999/02/22-rdf-syntax-ns#"
   xmlns:cc="http://creativecommons.org/ns#"
   xmlns:dc="http://purl.org/dc/elements/1.1/">
   <sodipodi:namedview id="namedview22" pagecolor="#ffffff" bordercolor="#666666" borderopacity="1.0" inkscape:pageshadow="2" inkscape:pageopacity="0.0" inkscape:pagecheckerboard="0" showgrid="true" width="24px" inkscape:snap-page="true" inkscape:zoom="8" inkscape:cx="39.8125" inkscape:cy="-6.125" inkscape:window-width="1920" inkscape:window-height="1043" inkscape:window-x="1920" inkscape:window-y="0" inkscape:window-maximized="1" inkscape:current-layer="svg7384">
      <inkscape:grid type="xygrid" id="grid23" />
   </sodipodi:namedview>
   <metadata id="metadata20854">
      <rdf:RDF>
         <cc:Work rdf:about="">
            <dc:format>image/svg+xml</dc:format>
            <dc:type rdf:resource="http://purl.org/dc/dcmitype/StillImage" />
         </cc:Work>
      </rdf:RDF>
   </metadata>
   <defs id="defs7386">
      <linearGradient id="linearGradient5606" inkscape:swatch="solid">
         <stop id="stop5608" offset="0" style="stop-color:#000000;stop-opacity:1;" />
      </linearGradient>
      <linearGradient id="linearGradient4526" inkscape:swatch="solid">
         <stop id="stop4528" offset="0" style="stop-color:#ffffff;stop-opacity:1;" />
      </linearGradient>
      <linearGradient id="linearGradient3600-4" inkscape:swatch="gradient">
         <stop id="stop3602-7" offset="0" style="stop-color:#f4f4f4;stop-opacity:1" />
         <stop id="stop3604-6" offset="1" style="stop-color:#dbdbdb;stop-opacity:1" />
      </linearGradient>
   </defs>
   <g id="layer9" label="status" style="display:inline;stroke-width:0.8" transform="matrix(1.25,0,0,1.25,-1089.2503,85.75)" />
   <g id="layer2" style="display:inline;stroke-width:0.8" transform="matrix(1.25,0,0,1.25,-788.00005,-373)" />
   <g id="layer4" style="display:inline;stroke-width:0.8" transform="matrix(1.25,0,0,1.25,-788.00005,-373)" />
   <g id="g1812" style="display:inline;stroke-width:0.8" transform="matrix(1.25,0,0,1.25,-788.00005,-373)" />
   <g id="g6217" style="display:inline;stroke-width:0.8" transform="matrix(1.25,0,0,1.25,-788.00005,-373)" />
   <g id="layer3" style="display:inline;stroke-width:0.8" transform="matrix(1.25,0,0,1.25,-788.00005,-373)" />
   <g id="layer1" style="display:inline;stroke-width:0.8" transform="matrix(1.25,0,0,1.25,-788.00005,-373)" />
   <path id="rect255" style="fill:#808080;fill-opacity:1;fill-rule:evenodd;stroke-width:0.5;stroke-linecap:square;stroke-linejoin:round" d="m 9.8046875,3.8046875 -1.2675781,2.1953125 h -2.5371094 v 2.5371094 l -2.1953125,1.2675781 1.2675781,2.1953125 -1.2675781,2.195312 2.1953125,1.267579 v 2.537109 h 2.5371094 l 1.2675781,2.195312 2.0761715,-1.199218 c -2.1428711,-0.06382 -3.880859,-1.838698 -3.880859,-3.996094 0,-2.003827 1.522619,-3.609132 3.453125,-3.888672 0.765394,-1.8340823 2.513821,-3.106878 4.544922,-3.111328 h 0.002 c 0.715446,0 1.391421,0.1549916 2,0.4316406 v -2.4316406 h -2.537109 l -1.267579,-2.1953125 -2.195312,1.2675781 z" sodipodi:nodetypes="ccccccccccccsccscccccc" />
   <path id="rect1606" style="fill:#808080;fill-opacity:1;fill-rule:evenodd;stroke-width:0.5;stroke-linecap:square;stroke-linejoin:round" d="M 16 9 C 14.177766 9.00399 12.588542 10.239072 12.134766 12.003906 C 12.089876 12.001606 12.044946 12.0003 12 12 C 10.343146 12 9 13.343146 9 15 C 9 16.656854 10.343146 18 12 18 L 19.5 18 C 20.880712 18 22 16.880712 22 15.5 C 21.999494 14.310923 21.161525 13.286739 19.996094 13.050781 C 19.997494 13.033861 19.9988 13.01693 20 13 C 20 10.790861 18.209139 9 16 9 z M 16 10 C 17.656854 10 19 11.343146 19 13 C 18.9989 13.01954 18.997594 13.039084 18.996094 13.058594 C 18.986694 13.456128 18.898434 13.847835 18.736328 14.210938 C 18.967381 14.073455 19.231139 14.000601 19.5 14 C 19.61978 14.000079 19.73912 14.014499 19.855469 14.042969 C 20.527188 14.20682 20.999889 14.808586 21 15.5 C 21 16.328427 20.328427 17 19.5 17 L 12 17 C 10.895431 17 10 16.104569 10 15 C 10 13.895431 10.895431 13 12 13 C 12.359587 13.000217 12.712464 13.09738 13.021484 13.28125 C 13.009914 13.18789 13.00274 13.094035 13 13 C 13.0028 12.734421 13.04093 12.470394 13.113281 12.214844 C 13.466919 10.910705 14.64877 10.003926 16 10 z " />
</svg>

<svg height="24" width="24" xmlns="http://www.w3.org/2000/svg"><path style="fill:gray;fill-opacity:1;stroke-width:.5;stroke-linecap:square;stroke-linejoin:round" d="M9.805 3.805 8.537 6H6v2.537L3.805 9.805 5.072 12l-1.267 2.195L6 15.463V18h2.537l1.268 2.195 2.076-1.199C9.738 18.932 8 17.157 8 15c0-2.004 1.523-3.61 3.453-3.889.766-1.834 2.514-3.107 4.545-3.111H16c.715 0 1.391.155 2 .432V6h-2.537l-1.268-2.195L12 5.072z"/><path style="fill:gray;fill-opacity:1;stroke-width:.5;stroke-linecap:square;stroke-linejoin:round" d="M16 9a4 4 0 0 0-3.865 3.004A3 3 0 1 0 12 18h7.5a2.5 2.5 0 0 0 .496-4.95A4.32 4.32 0 0 0 20 13a4 4 0 0 0-4-4zm0 1a3 3 0 0 1 3 3l-.004.059a3 3 0 0 1-.26 1.152 1.5 1.5 0 0 1 1.12-.168A1.5 1.5 0 0 1 19.5 17H12a2 2 0 1 1 1.021-3.719A2.996 2.996 0 0 1 13 13c.003-.266.04-.53.113-.785A3 3 0 0 1 16 10z"/></svg>
